X: 151
T: Miss Elliott's Strathspey
C: William Shepherd (17??-1812)
R: strathspey
B: William Shepherd "2nd Collection" 1800 p.15 #1
F: http://imslp.org/wiki/File:PMLP73094-Shepherd_Collections_HMT.pdf
Z: 2012 John Chambers <jc:trillian.mit.edu>
M: C
L: 1/8
K: C
c |\
C>cE>c G>cE>c | C>cE>c D<d-Tdc |\
C>cE>c G>cE>c | {AB}c>AG>E CccE |
C>cE>c G>cE>c | C>cE>c D<d-Tdc |\
C>cE>c G>cE>c | {AB}c>AG>E Cc Tc.e/.f/ ||
g>ce>Tc G>cE>C | C>ce>c B<d-Tde/f/ |\
b>ce>c G>cE>c | {AB}c>AG>E C<c-Tce/f/ |
g>ce>c G>cE>c | C>c {f}ed/c/ B<ddf |\
e<gd>B c<eG>E | F>AG>E C<cTc |]

